X: 5126
T: Bridgett's
R: reel
M: 4/4
K: Adorian
|:A2AB cBcd|e2dc B2d2|G2GA BABc|d2cB c2e2|
A2AB cBcd|e2dc B2G2|g2ag e2dB|e2dB A4:|
|:A2a2 a2ba|g2ed e2dB|G2g2 g2ag|f2ed e2dB|
A2a2 a2ba|g2ed e2eg|edBd e2dB|B2A2 A4:|

